X: 168
T: For Freedom and For Erin   #2
R: jig, march
%S: s:2 b:14(7+7)
B: O'Neill's 1850 #168
O: J.O'Neill
Z: 1997 henrik.norbeck@mailbox.swipnet.se
Q: "Boldly"
M: 6/8
L: 1/8
K: Gm
"^A"[|] D |: G2B A2G | F2=E [1 D2E | F2F F2A | c3 A2A :|[2HD2 d | d2c B2A | G3 HG2 |]
"^B" |: A | B2B B2G | c2c [1 c2A | B2B B2G | c3 A2 :|[2 Hc2 (=B/c/) | d2c _B2A | G3 "_D.C."d2 |]
